X: 66
T: REELS: Trip to Birmingham Set
T: Trip to Birmingham
C: C: Josie McDermott / Dan Cleary / Phil Murphy; S: Various
C: Set Leaders: Mars, Anton
Z: Mars Agliullin ed., Oleg Naumov arr., Anton Zille ed.; slainte / SPeak / Kenny at The Session
N: https://thesession.org/members/26966/sets/94276
R: Reel
M: 4/4
L: 1/8
Q: 1/2=100
K: Gmaj
E|:"G"DGGF G2Bd|e2ed "C"edBA|"G/B"~G2BG dGBG|"Am"ABAG "D"EGDE|
"G"DGGF "(D)"G2Bd|"(G/B)"~e3d "C"efga|"G/B"bg~g2 "G"ageg|1 "D/B"dBAB "D"~G3E:|2 "D/B"dBAB "D"~G3z ||
|:"G"dggf g2ga|~b2ag "C"edBA|"G/B"G2BG "(D)"dGBG|"Am"ABAG "D"EGD2|
|1 "G"dggf ~g3a|~b2ag "C"edBA|"G/B"~G3B "(D)"d2BG|"Am"AGFA "D"~G3z:||
|2 "Em"dg~g2 ag~g2|"D"~b2ag edBA|"C"~G3B d2BG|"D"AGFA ~G3||
T: Trip to Durrow
K: Dmaj
|:"D"D2DF ADFA|dfed "G"~B3c|dB~B2 dB~B2|"A"ABDE FEEF|
"D"D2DF ADFA|dfed "G"~B3c|dB~B2 ABdB|"A"AFEG "D"FDD2:||
|:"D"d2de "(Em)"~f3a|"(D/F#)"afdf "G"gfed|"(Em)"(3Bcd ef gebe|"A"gebe gfef|
"D"d2de "(Em)"~f3a|"(D/F#)"afdf "G"gfed|"(Em)"(3Bcd ef gbag|"A"fgef "(D)"d2de|
"D"fd"(Em)"ec "(D/F#)"d2de|"D"fdec "G"B2Bc|dB~B2 dB~B2|"Em"ABDE "A"FEEF|
"D (Bm)"D2DF "Em (Bm)"ADFA|"D/F#"dfed "G"~B3c|"(Em)"dB~B2 ABdB|"A"AFEG "D"FDD2:||
T: Trip to Cullenstown (Gmaj)
K: Gmaj
|:"G"d2de dBGA|"G"B2BG "C"AGEG|"G/B"~d3e "Em"dBGA|"Am"BAAG "D"A2GA|
"G"Bddd "D"e2dB|"G/B"dedB AGEA|"Am"~B3G "C"AGEG|1 "G/B"DGGF "D"~G3B:|2 "G/B"DGGF "D"~G3A||
|:"G"Bd~d2 "C"edge|"G"d2de dBGA|"G"Bd~d2 "C"e2de|"Am"gedB "D"~A2GA|
"G"Bd~d2 "Am"e2dB|"G/B"dedB AGEA|"Am"~B3G "C"AGEG|1 "G/B"DGGF "D"~G3A:|2 "G/B"DGGF "D"~G3B||

